X: 17278
T: Herman The German's
R: jig
M: 6/8
K: Eminor
D|:~E3 EDE|G2E F3|BAG ABA|GFE ^D2D|
~E3 EDE|G2E F3|BAG ABA|1 GFE E2D:|2 GFE E2B||
|:BAB gdB|fdB ~g3|BAB gdB|fdB ~a3|
BAB gdB|fdB ~e3|BAG ABA|1 GFE E2B:|2 GBd BAG||

